archdroid-icon-theme/Archdroid-DeepOrange/places/scalable/folder-xfce.svg

<svg fill="#FF5722" height="48" viewBox="0 0 48 48" width="48" xmlns="http://www.w3.org/2000/svg"><path d="m8 8c-2.21 0-3.980469 1.79-3.980469 4l-.019531 24c0 2.21 1.79 4 4 4h32c2.21 0 4-1.79 4-4v-20c0-2.21-1.79-4-4-4h-16l-4-4zm-1.037109 8.746094c.109157-.018261 2.830656 1.419533 4.660156 1.916015 3.26234.833694 6.240354 3.341841 7.679687 4.783204.106723.123359 1.235906-.845187 2.417969-.775391 1.614634.097795 6.609821 1.503522 7.277344.546875.404774-.561612.375855-1.250977.880859-1.533203.271879-.076086-1.009529-2.422307.353516-3.173828.971864-.48573 1.795362 2.234315 2.044922 2.539062.111795.136345.704967.170007.634765-.140625-.076085-.337413-1.035757-2.946919.140625-3.384765 1.910658-.756594 1.571385 3.338616 1.621094 3.455078.105708.247937 6.65567.439143 7.052735 3.384765.229676 1.621127-5.247562 3.716518-5.783204 4.089844-.535438.373326-.490028.970373-.28125 1.339844.240025.400716 1.834539 1.752294 1.621094 2.396484-.146693.372109-3.124341-.991768-3.314453-.705078-.433586.547612 2.167745 1.917949 1.269531 2.890625-.35608.232923-4.451754-1.714333-4.441406-1.691406-.109969.041796-5.789225 1.036422-10.154297-.283203-.153794-.04342-2.80242 2.558226-3.103515 2.46875-.411673-.150954.607355-2.262334.49414-2.679688-.18504-.232517-1.87722.944953-1.974609.353516-.116462-.777289 1.484618-1.672351 1.410156-2.1875-.41289-2.92655.184949-4.63392 1.199219-6.0625.338225-.525903-3.974907-3.784773-7.097656-5.070313-3.122547-1.285539-4.793071-2.374912-4.607422-2.476562zm33.328125 2.640625c.172054.125389-.157215 2.553121-.345703 2.412109-.219532-.106722.256226-2.515991.345703-2.412109zm1.628906.3125c.080752.079737-1.096667 2.461324-1.285156 2.320312-.313472-.232111 1.104377-2.469845 1.285156-2.320312zm-6.412109 2.558594a.565475.643824 0 0 0 -.564454.642578.565475.643824 0 0 0 .564454.644531.565475.643824 0 0 0 .566406-.644531.565475.643824 0 0 0 -.566406-.642578zm-1.269532.390625c-.56222.39747.309956 2.64732 1.742188 1.333984-1.125253.033072-1.501961-.296991-1.742188-1.333984zm3.035157 2.71289c-.623983.050608-2.27805 1.065178-2.248047 1.169922.019883.151968 3.007609-.922435 2.443359-1.126953-.039184-.037637-.106172-.050199-.195312-.042969zm.447265.701172c-.364804-.188083-1.85283 1.544912-1.662109 1.660156-.024956.041188 2.194707-1.131007 1.662109-1.660156z" fill="#FF5722"/></svg>

<svg fill="#FF5722" height="48" version="1.1" viewBox="0 0 48 48" width="48" xmlns="http://www.w3.org/2000/svg"><path d="M8 8C5.79 8 4.019531 9.79 4.019531 12L4 36C4 38.21 5.79 40 8 40L40 40C42.21 40 44 38.21 44 36L44 16C44 13.79 42.21 12 40 12L24 12 20 8 8 8zM6.962891 16.746094C7.072048 16.727833 9.793547 18.165627 11.623047 18.662109 14.885387 19.495803 17.863401 22.00395 19.302734 23.445313 19.409457 23.568672 20.53864 22.600126 21.720703 22.669922 23.335337 22.767717 28.330524 24.173444 28.998047 23.216797 29.402821 22.655185 29.373902 21.96582 29.878906 21.683594 30.150785 21.607508 28.869377 19.261287 30.232422 18.509766 31.204286 18.024036 32.027784 20.744081 32.277344 21.048828 32.389139 21.185173 32.982311 21.218835 32.912109 20.908203 32.836024 20.57079 31.876352 17.961284 33.052734 17.523438 34.963392 16.766844 34.624119 20.862054 34.673828 20.978516 34.779536 21.226453 41.329498 21.417659 41.726563 24.363281 41.956239 25.984408 36.479001 28.079799 35.943359 28.453125 35.407921 28.826451 35.453331 29.423498 35.662109 29.792969 35.902134 30.193685 37.496648 31.545263 37.283203 32.189453 37.13651 32.561562 34.158862 31.197685 33.96875 31.484375 33.535164 32.031987 36.136495 33.402324 35.238281 34.375 34.882201 34.607923 30.786527 32.660667 30.796875 32.683594 30.686906 32.72539 25.00765 33.720016 20.642578 32.400391 20.488784 32.356971 17.840158 34.958617 17.539063 34.869141 17.12739 34.718187 18.146418 32.606807 18.033203 32.189453 17.848163 31.956936 16.155983 33.134406 16.058594 32.542969 15.942132 31.76568 17.543212 30.870618 17.46875 30.355469 17.05586 27.428919 17.653699 25.721549 18.667969 24.292969 19.006194 23.767066 14.693062 20.508196 11.570313 19.222656 8.447766 17.937117 6.777242 16.847744 6.962891 16.746094zM40.291016 19.386719C40.46307 19.512108 40.133801 21.93984 39.945313 21.798828 39.725781 21.692106 40.201539 19.282837 40.291016 19.386719zM41.919922 19.699219C42.000674 19.778956 40.823255 22.160543 40.634766 22.019531 40.321294 21.78742 41.739143 19.549686 41.919922 19.699219zM35.507813 22.257813A.565475.643824 0 0 0 34.943359 22.900391.565475.643824 0 0 0  35.507813 23.544922.565475.643824 0 0 0  36.074219 22.900391.565475.643824 0 0 0  35.507813 22.257813zM34.238281 22.648438C33.676061 23.045908 34.548237 25.295758 35.980469 23.982422 34.855216 24.015494 34.478508 23.685431 34.238281 22.648438zM37.273438 25.361328C36.649455 25.411936 34.995388 26.426506 35.025391 26.53125 35.045274 26.683218 38.033 25.608815 37.46875 25.404297 37.429566 25.36666 37.362578 25.354098 37.273438 25.361328zM37.720703 26.0625C37.355899 25.874417 35.867873 27.607412 36.058594 27.722656 36.033638 27.763844 38.253301 26.591649 37.720703 26.0625z"/></svg>
